X:1
T:Kiribati, 87.87 D
T:Kiribati, 87.87 D
T:William Ross McMeans, 1922
T:Public Domain Courtesy of the Cyber Hymnal™
C:William Ross McMeans, 1922
Z:Public Domain
Z:Courtesy of the Cyber Hymnal™
%%score ( 1 2 ) ( 3 4 )
L:1/8
Q:1/4=105
M:4/4
K:E
V:1 treble 
V:2 treble 
V:3 bass 
V:4 bass 
V:1
 [EG][EF] | [B,E]2 [B,E]2 [CE]2 [DF]2 | [EG]2 [EG]4 [EG][FA] | [GB]2 [GB]2 [FB]2 [Fc]2 | %4
 [FB]6 [EG][EF] | [B,E]2 [B,E]2 [CE]2 [DF]2 | [EG]2 [EG]4 [B,E][DF] | [EG]2 [EB]2 [EG]2 [DF]2 | %8
 [B,E]6 [EB][Ec] | [Ge]2 [Ge]2 [Ae]2 [Ac]2 | [GB]2 [GB]4 [EG][DF] | [CE]2 [CE]2 [DF]2 [DF]2 | %12
 G6 [EB][Ec] | [Ge]2 [Ge]2 [Ae]2 [Ac]2 | [GB]2 [GB]4 [B,E][DF] | [EG]2 [EB]2 [EG]2 [DF]2 | E6 |] %17
V:2
 x2 | x8 | x8 | x8 | x8 | x8 | x8 | x8 | x8 | x8 | x8 | x8 | E2 E2 E2 x2 | x8 | x8 | x8 | %16
 (E2 C2 B,2) |] %17
V:3
 [E,B,][E,A,] | [E,G,]2 [E,G,]2 [C,G,]2 [B,,B,]2 | [E,B,]2 [E,B,]4 [E,B,][E,B,] | %3
 [E,E]2 [E,E]2 [F,D]2 [F,E]2 | [B,,D]6 [E,B,][E,A,] | [E,G,]2 [E,G,]2 [C,G,]2 [B,,B,]2 | %6
 [E,B,]2 [E,B,]4 [G,B,][F,B,] | [E,B,]2 [G,B,]2 B,2 [B,,A,]2 | [E,G,]6 [E,G,][E,A,] | %9
 [E,B,]2 [E,B,]2 [A,C]2 [A,E]2 | [E,E]2 [E,E]4 [E,B,][B,,A,] | [C,G,]2 [C,G,]2 [B,,B,]2 [B,,B,]2 | %12
 [E,B,]2 [E,C]2 [E,B,]2 [E,G,][E,A,] | [E,B,]2 [E,B,]2 [A,C]2 [A,E]2 | [E,E]2 [E,E]4 [G,B,][F,B,] | %15
 [E,B,]2 [G,B,]2 B,2 [B,,A,]2 | (G,2 A,2 G,2) |] %17
V:4
 x2 | x8 | x8 | x8 | x8 | x8 | x8 | x4 B,2 x2 | x8 | x8 | x8 | x8 | x8 | x8 | x8 | x4 B,2 x2 | %16
 E,6 |] %17

